app/client/src/assets/icons/blueprintjs/16px/key-backspace.svg

<svg xmlns="http://www.w3.org/2000/svg" xml:space="preserve" viewBox="0 0 16 16"><path fill-rule="evenodd" d="M15 2H6c-.28 0-.53.11-.71.29l-5 5C.11 7.47 0 7.72 0 8c0 .28.11.53.29.71l5 5c.18.18.43.29.71.29h9c.55 0 1-.45 1-1V3c0-.55-.45-1-1-1zm-2.29 7.29a1.003 1.003 0 0 1-1.42 1.42L10 9.41 8.71 10.7c-.18.19-.43.3-.71.3a1.003 1.003 0 0 1-.71-1.71L8.59 8l-1.3-1.29a1.003 1.003 0 0 1 1.42-1.42L10 6.59l1.29-1.29c.18-.19.43-.3.71-.3a1.003 1.003 0 0 1 .71 1.71L11.41 8l1.3 1.29z" clip-rule="evenodd"/></svg>

<?xml version="1.0" encoding="utf-8"?>
<!-- Generator: Adobe Illustrator 18.0.0, SVG Export Plug-In . SVG Version: 6.00 Build 0)  -->
<svg version="1.1" id="Layer_1" xmlns="http://www.w3.org/2000/svg" xmlns:xlink="http://www.w3.org/1999/xlink" x="0px" y="0px"
	 viewBox="0 0 16 16" enable-background="new 0 0 16 16" xml:space="preserve">
<g id="backspace">
	<g>
		<path fill-rule="evenodd" clip-rule="evenodd" d="M15,2H6C5.72,2,5.47,2.11,5.29,2.29l-5,5C0.11,7.47,0,7.72,0,8
			c0,0.28,0.11,0.53,0.29,0.71l5,5C5.47,13.89,5.72,14,6,14h9c0.55,0,1-0.45,1-1V3C16,2.45,15.55,2,15,2z M12.71,9.29
			C12.89,9.47,13,9.72,13,10c0,0.55-0.45,1-1,1c-0.28,0-0.53-0.11-0.71-0.29L10,9.41l-1.29,1.29C8.53,10.89,8.28,11,8,11
			c-0.55,0-1-0.45-1-1c0-0.28,0.11-0.53,0.29-0.71L8.59,8L7.29,6.71C7.11,6.53,7,6.28,7,6c0-0.55,0.45-1,1-1
			c0.28,0,0.53,0.11,0.71,0.29L10,6.59l1.29-1.29C11.47,5.11,11.72,5,12,5c0.55,0,1,0.45,1,1c0,0.28-0.11,0.53-0.29,0.71L11.41,8
			L12.71,9.29z"/>
	</g>
</g>
</svg>
